!!!ONB: MCCC : ILB0327_03 : Extracted Monophonic Melody
!!!COM: Beethoven, Ludwig van
!!!OPR: Violin Sonata No.6 in A major
!!!OMV: 3
!!!SCT: Op.30 No.1
!!!ODT: 1801///
**kern
*staff1
=1
*clefG2
*k[f#c#g#]
*A:
*M2/2
2e
2a
=2
2.cc#
4a
=3
4b
4b
8a
8g#
8f#
8g#
=4
2a
2a
=5
2a[
4a]
4cc#
=6
2ee[
8ee]
8ee#
8ff#
8cc#
=7
8ee
8dd
8ee
8b
8dd
8cc#
8ee
8dd
=8
2cc#
2b
=9
1r
=10
2A
2c#
=11
1e[
=12
4e]
4a
4e
4c#
=13
2A
4A
4c#
=14
2e[
8e]
8c#
8f#
8c#
=15
8d
8B
8e
8B
8e
8A
8c#
8B
=16
2A
4G#
4b
=17
2b
4b
4b
=18
2b[
8b]
8cc#
8dd#
16ee
32r
32ee
=19
4dd#
8.dd#
32dd#
32ee
8dd#
8cc#
8dd#
8ff#
=20
2.ee
4ee
=21
2ee
4ee
4ee
=22
4ee
2aa
8ff#
8dd
=23
4cc#
16cc#
8.ee
16dd
8.ee
16b
8.ee
=24
4ee
4a
2r
=25
1a
=26
1g#
=27
2a
4B
4A
=28
8G#
8g#
8b
8a
8g#
8a
8b
8cc#
=29
8dd
8cc#
8dd
8cc#
8dd
8cc#
8dd
8b
=30
8cc#
8a
8e
8c#
8e
8c#
8f#
8a
=31
8a
8e
8e
8c#
8e
8d
8e
8B
=32
2e
2r
=33
1r
=34
1r
=35
1r
=36
1r
=37
12ee
12aa
12gg#
24aa
24r
24ee
32r
16.dd
12cc#
12ee
12dd#
24ee
24r
24cc#
32r
16.b
=38
2a
2r
=39
1r
=40
1r
=41
12e
12ee
12ff#
12gg#
12gg#
12aa
12bb
12bb
12ccc#
12ddd
12bb
12gg#
=42
2aa
2r
=43
1r
=44
1r
=45
12ee
12aa
12gg#
24aa
24r
24ee
32r
16.dd
12cc#
12ee
12dd#
24ee
24r
24cc#
32r
16.b
=46
2a
2r
=47
1r
=48
1r
=49
12e
12ee
12ff#
12gg#
12gg#
12aa
24bb
24r
24bb
32r
16.aa
24gg#
24r
24ff#
32r
16.ee
=50
1b
=51
1b[
=52
4b]
4d#
4f#
4a
=53
12g#
12e
12f#
12g#
12g#
12a
12b
12b
12cc#
12dd
12dd
12dd#
=54
1ee
=55
2aa
2aa[
=56
4aa]
4ee
4dd
4b
=57
12a
12aa
12gg#
12aa
12ccc#
12bb
24aa
24r
24gg#
32r
16.ff#
24ee
24r
24dd#
32r
16.cc#
=58
1b
=59
1b[
=60
4b]
4d#
4f#
4a
=61
12g#
12e
12f#
12g#
12g#
12a
12b
12b
12cc#
12dd
12dd
12dd#
=62
1ee
=63
2aa
2aa[
=64
4aa]
4ee
4dd
4b
=65
2a
2r
=66
1r
=67
4e
8f#
16.g#
32b
8a
8g#
8a
8b
=68
2.cc#
8dd
8cc#
=69
8a#
8b
8dd
8b
8a
8g#
8f#
8g#
=70
8a
8g#
8a
8e
8f#
8g#
8a
8b
=71
8cc#
8b
8a
8g#
8a
8b
8cc#
8dd
=72
8ee
8dd#
8ee
8dd#
8ee
8ccc#
8ee
8ff#
=73
8dd
8bb
8dd
8ee
8cc#
8aa
8cc#
8dd
=74
8cc#
8dd
8dd#
8ee
8b
8e
8d#
8e
=75
4e
8f#
16.g#
32b
8a
8g#
8a
8b
=76
2.cc#
8dd
8cc#
=77
8a#
8b
8dd
8b
8a
8g#
8f#
8g#
=78
8a
8g#
8a
8e
8f#
8g#
8a
8b
=79
8cc#
8b
8a
8g#
8a
8b
8cc#
8dd
=80
8ee
8dd#
8ee
8dd#
8ee
8ccc#
8ee
8ff#
=81
8dd
8bb
8dd
8ee
8cc#
8aa
8cc#
8dd
=82
8cc#
8dd
8dd#
8ee
8b
8B
8A#
8B
=83
8B
8d#
8f#
8b
8dd#
8ff#
8bb
8ff#
=84
8aa
8gg#
8ff#
8ee
8dd#
8ee
8b
8g#
=85
8b
8a
8g#
8f#
8e
8d#
8c#
8d#
=86
8e
8f#
8g#
8a
8b
8cc#
8dd
8dd#
=87
8ee
8ff#
8gg#
8aa
8bb
8ccc#
8ddd
8eee
=88
8ddd
8ccc#
8bb
8aa
8gg#
8aa
8ff#
8dd
=89
8cc#
8dd
8dd#
8ee
8dd
8ee
8b
8ee
=90
8ee
8cc#
8a
8e
8c#
8A
8c#
8B
=91
8B
8d#
8f#
8b
8dd#
8ff#
8bb
8ff#
=92
8aa
8gg#
8ff#
8ee
8dd#
8ee
8b
8g#
=93
8b
8a
8g#
8f#
8e
8d#
8c#
8d#
=94
8e
8f#
8g#
8a
8b
8cc#
8dd
8dd#
=95
8ee
8ff#
8gg#
8aa
8bb
8ccc#
8ddd
8eee
=96
8ddd
8ccc#
8bb
8aa
8gg#
8aa
8ff#
8dd
=97
8cc#
8dd
8dd#
8ee
8dd
8ee
8b
8ee
=98
8ee
8cc#
8a
8e
2A
=99
2r
4r
4a
=100
2.cc#
4a#
=101
4.ff#
8ff#
2ff#
=102
4ee
4cc#
4a
4e
=103
2c#
4r
4a
=104
4cc#
4ee
4gg
4ff#
=105
2bb[
4bb]
32bb
32aa
32bb
32aa
32bb
32aa
32gg#
32aa
=106
2gg#
12r
12a
12g#
12f#
12e
12d
=107
2c#
4r
4a
=108
2.cc#
4a#
=109
4.ff#
8ff#
2ff#
=110
4ee
4cc#
4a
4e
=111
2c#
4r
4a
=112
4cc#
4ee
4gg
4ff#
=113
2bb[
4bb]
32bb
32aa
32bb
32aa
32bb
32aa
32gg#
32aa
=114
2gg#
12r
12f#
12g#
12b
12a
12g#
=115
4f#
4B
2a[
=116
4a]
4g#
2ee
=117
4dd#
4b
4a
4f#
=118
12g#
12g#
12f#
12g#
12g#
12a
12b
12b
12cc#
12dd
12dd
12cc#
=119
4dd
4e
2dd[
=120
8dd]
8cc#
4gg[
8gg]
8ff#
4bb[
=121
8bb]
8gg#
4aa[
8aa]
8ff#
8gg#
8dd
=122
2cc#
12r
12cc#
12b
12a
12a
12g#
=123
4f#
4B
2a[
=124
4a]
4g#
2ee
=125
4dd#
4b
4a
4f#
=126
12g#
12g#
12f#
12g#
12g#
12a
12b
12b
12cc#
12dd
12dd
12cc#
=127
4dd
4e
2dd[
=128
8dd]
8cc#
4gg[
8gg]
8ff#
4bb[
=129
8bb]
8gg#
4aa[
8aa]
8ff#
8gg#
8dd
=130
2cc#
2r
=131
2r
4r
8r
16r
16e
=132
4.ee
16r
16e
4.aa
8ee[
=133
2ee]
2r
=134
1r
=135
2r
4r
8r
16r
16e
=136
2ee
4cc#
4ee
=137
2eee
2r
=138
1r
=139
2r
4r
8r
16r
16e
=140
4.ee
16r
16e
4.aa
16r
16ee[
=141
2ee]
2r
=142
1r
=143
2r
4r
8r
16r
16e
=144
2ee
4cc#
4ee
=145
2eee
2r
=146
1r
=147
2r
4r
4f#[
=148
2f#]
4b
4b[
=149
2b]
2r
=150
1r
=151
2r
4r
4b[
=152
2b]
4ee
4ee[
=153
2ee]
2r
=154
1r
=155
2r
4r
4f#[
=156
2f#]
4b
4b[
=157
2b]
2r
=158
1r
=159
2r
4r
4b[
=160
2b]
4ee
4ee[
=161
2ee]
2r
=162
1r
=163
1r
=164
2.cc
8b
8a
=165
8g#
8a
8cc
8a
8ee
8cc
4ee#[
=166
4ee#]
4dd
4b
4ee[
=167
4ee]
4dd
4cc
4b
=168
8dd
8cc
8b
8a
8g#
8a
8ee
8dd
=169
8dd
8cc
8b
8a
8g#
8a
4aa[
=170
4aa]
4gg#
4aa
8ccc
8ff#
=171
8aa
8dd
8ee
8ff#
4gg
4gg#
=172
2aa
2r
=173
2r
2A
=174
2d
4e#
4B
=175
8c
8B
8c
8d
8e
8e#
8d
8e
=176
2c
2A
=177
2c[
4c]
8c
8e#
=178
4e#
8B
8e
4e
8A
8d
=179
8d
8f#
8g
8a
4d
4gg
=180
4a
4gg
4ff#
4a
=181
4g
4ff#
4ee
4g
=182
4f#
4cc
4b
4a[
=183
4a]
4f#
4g
4g#
=184
4b
4dd
4ee#
8ee
8dd
=185
8dd
8cc
8b
8cc
8b
8cc
8dd
8a#
=186
4ee
4a
4ee#
4g#[
=187
8g#]
8a
8e
8c
2A
=188
4r
4c#
4d#
4f#
=189
4e
4a
4g
4B
=190
4A
4a
4f#
4cc[
=191
8cc]
8a
8cc
8b
8b
8B
8d
8c
=192
8c
8B
8A
8G#
8G#
8g#
8a
8b
=193
4r
2a
4a
=194
4r
4a
4r
4g#
=195
2a
4ee#
8dd
8a#
=196
2r
2e#
=197
1r
=198
4r
16dd
8.ee#
16dd#
8.ee#
16cc
8.ee#
=199
16ee#
8.a#
4r
2r
=200
4r
16aa#
8.ddd
16ccc
8.ddd
16aa
8.ddd
=201
16ddd
8.gg
4r
2r
=202
4r
16aa#
8.ddd
16ccc
8.ddd
16aa
8.ddd
=203
16ddd
8.gg
4r
2r
=204
4r
16a#
8.dd
16cc
8.dd
16a
8dd
32r
32a#
=205
2dd
2gg
=206
2aa#
2r
=207
2aa
2eee
=208
2ggg
2r
=209
2aa
2ddd
=210
2eee#
2r
=211
2ee
2bb
=212
2ddd
2r
=213
2r
16bb
8.ddd
4r
=214
2r
16bb
8.ddd
4r
=215
1r
=216
1r
=217
1r
=218
1r
=219
*M6/8
2.r
=220
2.r
=221
2.r
=222
2.r
=223
2.r
=224
2.r
=225
2.r
=226
4.r
4r
8e[
=227
8e]
8f#
8g#
4a
8b
=228
4.cc#[
8cc#]
8dd
16cc#
32r
32cc#
=229
8b
8a#
8b
4f#
32a
32g#
32f#
32g#
=230
4.b
4a
8e[
=231
8e]
8a
8b
4cc#
8dd
=232
4.ee[
8ee]
8ff#
8cc#
=233
32ee
32dd
32cc#
32dd
8ee
8b
32dd
32cc#
32b
32cc#
8ee
8dd
=234
4.cc#
4.b
=235
8f#
8d#
8B
8f#
8d#
8B
=236
8g#
8e
8B
8g#
8e
8B
=237
8a
8f#
8B
8a
8f#
8B
=238
4.g#
4.r
=239
8b
8g#
8e
8b
8g#
8e
=240
8cc#
8e
8a
8B
8a
8a
=241
8a
8c#
8e
8r
8B
8e
=242
4.c#
4r
16cc#
16b
=243
8a#
8b
8b
8a#
8b
8b
=244
8b
16cc#
16dd#
16ee
16ff#
16gg#
16aa
16bb
16gg#
16ff#
16ee
=245
16dd#
16ff#
16aa
16gg#
16ff#
16ee
16dd#
16cc#
16b
16a
16g#
16f#
=246
16e
16f#
16g#
16a
16b
16a
16g#
16a
16b
16cc#
16dd#
16ee
=247
8dd#
8ee
8ee
8dd#
8ee
8ee
=248
8ee
4aa
8aa
16gg#
16ff#
16ee
16dd
=249
8cc#
16cc#
16ee
16dd#
16ee
16dd
16ee
16b
16ee
16dd#
16ee
=250
4.a
4.r
=251
2.r
=252
4.a#[
8a#]
8b
8cc#
=253
4.dd[
4dd]
8cc#
=254
4.cc[
8cc]
8cc#
8dd#
=255
4.ee[
4ee]
8dd#
=256
2.dd
=257
2.dd
=258
2.dd
=259
4.dd
4.dd
=260
4.dd
4.dd
=261
2.dd
=262
4.dd#
4.ee[
=263
8ee]
8dd
8cc#
8dd
8ee
8ff#
=264
8ff#
8a
8a
32b
32a
32g#
32a
8cc#
8b
=265
4.a
4.r
=266
4.e
4.a
=267
4.cc#[
4cc#]
8b
=268
4.a#[
8a#]
8b
8cc#
=269
4.dd[
4dd]
8cc#
=270
4.cc[
8cc]
8cc#
8dd#
=271
4.ee[
4ee]
8dd#
=272
2.dd
=273
2.dd
=274
2.dd
=275
4.dd
4.dd
=276
4.dd
4.dd
=277
4.dd#
4.cc##
=278
4.dd#
4.dd
=279
2.dd
=280
2.dd
=281
4.dd
4.dd
=282
4.dd
4.dd
=283
2.dd
=284
4.ee
4.ff#
=285
8ee
8dd
8cc#
8dd
8ee
8ff#
=286
8ff#
8a
8a
32b
32a
32b
32a
8cc#
8b
=287
4.a
4.r
=288
4.r
4r
8e
=289
4.g#
4.b
=290
4.dd[
8dd]
8cc#
8b
=291
4.cc#
4.a
=292
4.e
4r
8e
=293
8g#
8e
8b
8b
8g#
8dd
=294
4.dd[
8dd]
16ee
16dd
16cc#
16b
=295
4.cc#
4r
8e
=296
8dd
8b
8g#
8b
8g#
8e
=297
4.cc#
4r
8e
=298
8dd
8b
8g#
8b
8g#
8e
=299
4.cc#
8dd
8b
8g#
=300
4.cc#
8dd
8b
8g#
=301
4cc#
8dd
4cc#
8dd
=302
8cc#
8cc#
8dd
8cc#
8cc#
8dd
=303
16cc#
16ee
16dd
16cc#
16b
16a
16g#
16f#
16e
16d
16c#
16B
=304
4.A
4r
8A
==
*-
